icons/device-camera-24.svg

<svg width="24" height="24" viewBox="0 0 24 24">
  <path
    d="M21.3333 5.33333C22.0667 5.33333 22.6667 5.93333 22.6667 6.66667V18.6667C22.6667 19.4 22.0667 20 21.3333 20H2.66666C1.93333 20 1.33333 19.4 1.33333 18.6667V6.66667C1.33333 5.93333 1.93333 5.33333 2.66666 5.33333C2.66666 4.6 3.26666 4 3.99999 4H9.33333C10.0667 4 10.6667 4.6 10.6667 5.33333H21.3333ZM15.3333 17.3333C17.92 17.3333 20 15.2533 20 12.6667C20 10.08 17.92 8 15.3333 8C12.7467 8 10.6667 10.08 10.6667 12.6667C10.6667 15.2533 12.7467 17.3333 15.3333 17.3333ZM18.6667 12.6667C18.6667 14.5067 17.16 16 15.3333 16C13.5067 16 12 14.4933 12 12.6667C12 10.84 13.5067 9.33333 15.3333 9.33333C17.16 9.33333 18.6667 10.84 18.6667 12.6667ZM9.33333 8V6.66667H3.99999V8H9.33333Z"
  />
</svg>

<svg xmlns="http://www.w3.org/2000/svg" width="24" height="24" viewBox="0 0 24 24"><path d="M21.333 5.333c.734 0 1.334.6 1.334 1.334v12c0 .733-.6 1.333-1.334 1.333H2.667c-.734 0-1.334-.6-1.334-1.333v-12c0-.734.6-1.334 1.334-1.334C2.667 4.6 3.267 4 4 4h5.333c.734 0 1.334.6 1.334 1.333h10.666Zm-6 12A4.655 4.655 0 0 0 20 12.667 4.655 4.655 0 0 0 15.333 8a4.655 4.655 0 0 0-4.666 4.667 4.655 4.655 0 0 0 4.666 4.666Zm3.334-4.666A3.343 3.343 0 0 1 15.333 16 3.352 3.352 0 0 1 12 12.667a3.352 3.352 0 0 1 3.333-3.334 3.352 3.352 0 0 1 3.334 3.334ZM9.333 8V6.667H4V8h5.333Z"/></svg>
